img/form/icon.svg

<svg width="44" height="44" viewBox="0 0 44 44" fill="none" xmlns="http://www.w3.org/2000/svg">
<path opacity="0.6" d="M14.813 8.5481L14.4913 8.93084C12.7451 7.46302 11.7918 5.5544 11.6818 3.2963C11.6686 3.02548 11.663 2.74468 11.6648 2.50858C11.6664 2.29029 11.6741 2.0636 11.6991 1.93048M14.813 8.5481L31.5349 0.791302L31.5345 0.791023C31.4988 0.764268 31.4307 0.713371 31.3277 0.67211C31.234 0.634544 31.1339 0.613479 31.0266 0.598744C30.8182 0.57015 30.4851 0.55362 29.9143 0.541934C28.7591 0.518283 26.5238 0.513575 22.097 0.504676C18.4554 0.497372 16.2125 0.497892 14.8543 0.511492C14.1761 0.518283 13.7123 0.528379 13.4031 0.542778C13.2491 0.549948 13.1258 0.55851 13.0302 0.569342C12.9546 0.577899 12.8354 0.593203 12.7321 0.638469L12.9327 1.09643L12.732 0.63852C12.4691 0.753735 12.2396 0.955139 12.0691 1.16787C11.8989 1.3802 11.752 1.64828 11.6991 1.93048M14.813 8.5481L14.4913 8.93085C15.4524 9.73873 16.7023 10.2838 18.2189 10.5917V11.932V13.3492L18.0742 13.408L18.2624 13.8712L18.0742 13.408C16.3049 14.1267 14.9571 15.683 14.4697 17.5554H9.69816C7.97741 17.5554 6.64808 17.5629 5.71162 17.578C5.24372 17.5856 4.87104 17.5951 4.59543 17.6067C4.33885 17.6174 4.12275 17.6311 4.00183 17.6563M14.813 8.5481L4.10376 38.9788L4.00189 39.4683C2.3433 39.1232 0.949232 37.7277 0.60451 36.0683C0.58719 35.9849 0.578839 35.8539 0.572566 35.7328C0.565366 35.5938 0.558834 35.4118 0.55288 35.1946C0.540955 34.7597 0.53107 34.1735 0.523181 33.4878C0.507394 32.116 0.499512 30.3387 0.499512 28.5623C0.499512 26.7859 0.507394 25.0087 0.523181 23.6368C0.53107 22.9512 0.540955 22.3649 0.55288 21.93C0.558834 21.7129 0.565366 21.5308 0.572566 21.3919C0.578839 21.2708 0.587188 21.1398 0.604506 21.0564M11.6991 1.93048L12.1905 2.02262L11.6991 1.93053C11.6991 1.93051 11.6991 1.9305 11.6991 1.93048ZM4.00183 17.6563C4.00185 17.6563 4.00187 17.6563 4.00189 17.6563L4.10376 18.1458L4.00183 17.6563ZM4.00183 17.6563C2.34327 18.0015 0.949228 19.397 0.604506 21.0564M0.604506 21.0564L1.09398 21.1581L0.60451 21.0564C0.604509 21.0564 0.604507 21.0564 0.604506 21.0564ZM29.5651 42.5051L29.9655 42.8045C30.0316 42.716 30.0935 42.5869 30.1418 42.4802C30.1974 42.3571 30.261 42.2038 30.3283 42.0319C30.4633 41.6873 30.6194 41.253 30.7668 40.806L30.292 40.6494M29.5651 42.5051L29.5364 17.5827L29.6256 17.9316L29.1411 18.0554M29.5651 42.5051C29.6796 42.3518 30.002 41.5287 30.292 40.6494M29.5651 42.5051C29.5087 42.5805 29.4672 42.6447 29.4155 42.6994C29.1037 43.0296 28.4226 43.0109 21.8835 42.9903L14.9614 42.9684L14.6462 42.7166L30.8129 39.0693M30.292 40.6494L30.7668 40.806L31.1745 39.5693M30.292 40.6494L30.8129 39.0693M31.1745 39.5693H35.1367C36.5535 39.5693 37.6756 39.5615 38.4804 39.5462C38.8825 39.5386 39.2083 39.529 39.4534 39.5174C39.682 39.5066 39.8798 39.4928 39.9971 39.4683M31.1745 39.5693H30.8129V39.0693M31.1745 39.5693L31.2878 39.2258L30.8129 39.0693M39.9971 39.4683C39.9971 39.4683 39.9972 39.4683 39.9972 39.4683L39.8953 38.9788L39.9971 39.4683ZM39.9971 39.4683C41.6557 39.1232 43.0498 37.7277 43.3945 36.0682C43.4118 35.9849 43.4202 35.8539 43.4265 35.7328C43.4337 35.5938 43.4402 35.4118 43.4461 35.1946C43.4581 34.7597 43.4679 34.1735 43.4758 33.4878C43.4916 32.116 43.4995 30.3387 43.4995 28.5623C43.4995 26.7859 43.4916 25.0087 43.4758 23.6368C43.4679 22.9512 43.4581 22.3649 43.4461 21.93C43.4402 21.7129 43.4337 21.5308 43.4265 21.3919C43.4202 21.2708 43.4118 21.1398 43.3945 21.0564C43.0498 19.397 41.6557 18.0015 39.9972 17.6563C39.9972 17.6563 39.9971 17.6563 39.9971 17.6563L39.8953 18.1458C39.6055 18.0855 37.7406 18.0554 34.3009 18.0554H29.1411M29.1411 18.0554L29.052 17.7065C28.609 15.9723 27.3643 14.5324 25.7366 13.8712M29.1411 18.0554V17.6837L25.7366 13.8712M25.7366 13.8712L25.9248 13.408L25.7801 13.3492M25.7366 13.8712L28.6732 9.53099C27.9265 9.97496 26.9747 10.3563 26.2347 10.4971C26.1213 10.5186 26.0208 10.5347 25.9392 10.5478C25.9267 10.5498 25.9146 10.5517 25.903 10.5536C25.8555 10.5613 25.8186 10.5675 25.7889 10.573M25.7366 13.8712L25.2801 13.6858M25.7366 13.8712L25.2801 13.6858M25.7801 13.3492V11.932C25.7801 11.7044 25.7787 11.5116 25.7775 11.3452C25.7759 11.1335 25.7747 10.9646 25.7771 10.8212C25.779 10.7017 25.784 10.6232 25.7889 10.573M25.7801 13.3492V13.6858H25.2801M25.7801 13.3492L25.4683 13.2225L25.2801 13.6858M25.7889 10.573C25.7941 10.5198 25.7991 10.4983 25.8002 10.4933C25.8005 10.4921 25.8006 10.4918 25.8004 10.4923C25.7901 10.5153 25.7659 10.5506 25.7278 10.5775C25.699 10.5979 25.6847 10.5969 25.72 10.5878C25.7381 10.5831 25.7601 10.5784 25.7889 10.573ZM25.2801 13.6858V11.932C25.2801 10.7417 25.2388 10.3518 25.411 10.1921C25.5283 10.0832 25.7449 10.0813 26.1413 10.0059L25.2801 13.6858ZM7.46689 29.1216C7.8804 28.7076 7.73724 28.0323 7.23491 27.8222C6.75327 27.6208 6.20495 27.9331 6.12306 28.3695L7.46689 29.1216ZM7.46689 29.1216C6.91763 29.6713 5.96478 29.2144 6.12305 28.3696L7.46689 29.1216ZM7.46689 33.7184C7.8804 33.3044 7.73724 32.6291 7.23491 32.419C6.75327 32.2176 6.20495 32.5299 6.12306 32.9663L7.46689 33.7184ZM7.46689 33.7184C6.91763 34.2681 5.96478 33.8112 6.12305 32.9664L7.46689 33.7184ZM13.1836 39.0693L12.7099 39.2294L12.8248 39.5693H13.1836V39.0693ZM23.6448 18.6786L23.6449 18.6786C25.689 19.0228 27.4718 19.9579 29.0383 21.5208C31.085 23.5628 32.11 26.1958 31.9677 29.0298C31.8382 31.6111 30.8804 33.763 29.0377 35.6072C27.5833 37.0629 25.9574 37.9491 23.9444 38.3835C23.5096 38.4773 22.7703 38.5299 21.9995 38.5299C21.2287 38.5299 20.4894 38.4773 20.0546 38.3835C18.0416 37.9491 16.4157 37.0629 14.9613 35.6072C13.1428 33.7871 12.1736 31.6339 12.0314 29.1088C11.7416 23.9601 15.3163 19.5493 20.5245 18.6691C21.3414 18.5311 22.7904 18.5347 23.6448 18.6786ZM34.5252 24.4984L34.1494 24.8282L34.5252 24.4984C34.2539 24.1891 34.2531 23.7506 34.4991 23.458C34.5833 23.3579 34.6316 23.3125 34.6715 23.2847C34.7043 23.2619 34.7487 23.2388 34.8382 23.2189C35.0541 23.171 35.4163 23.1616 36.1955 23.173C36.8238 23.1823 37.141 23.1915 37.3278 23.2137C37.4153 23.2241 37.4488 23.2348 37.4596 23.2389L37.4603 23.2391C37.4647 23.2408 37.4716 23.2433 37.4976 23.2628C37.6836 23.402 37.7574 23.4934 37.7955 23.5679C37.8327 23.6404 37.8615 23.747 37.8615 23.9655C37.8615 24.184 37.8327 24.2906 37.7955 24.3632C37.7574 24.4377 37.6836 24.5291 37.4976 24.6683C37.4723 24.6872 37.4647 24.6901 37.4585 24.6925L37.4583 24.6925C37.4465 24.6971 37.4133 24.7078 37.331 24.7184C37.1542 24.7414 36.8573 24.7527 36.2745 24.765C35.5238 24.7807 35.1369 24.7695 34.8968 24.7204C34.7893 24.6985 34.7294 24.6718 34.6873 24.646C34.6436 24.6191 34.5954 24.5784 34.5252 24.4984ZM28.6732 9.53096C29.0662 9.29731 29.5432 8.90033 29.971 8.48559C30.3996 8.07 30.8156 7.60099 31.0729 7.20609C31.9305 5.88981 32.3758 4.27504 32.3269 2.67528C32.3128 2.21532 32.2892 1.84419 32.169 1.53955C32.0333 1.19575 31.799 0.988669 31.535 0.791342L28.6732 9.53096ZM20.8946 24.2692C18.5605 24.8974 17.1027 27.3165 17.7045 29.6288C18.3195 31.9921 20.7336 33.4685 23.0654 32.8606C24.8174 32.4039 26.1185 30.9503 26.3762 29.1599C26.8178 26.0919 23.8837 23.4645 20.8946 24.2692Z" stroke="white"/>
</svg>

<svg width="44" height="44" fill="none" xmlns="http://www.w3.org/2000/svg"><path opacity=".6" d="M14.813 8.548l-.322.383c-1.746-1.468-2.7-3.377-2.81-5.635a14.51 14.51 0 01-.016-.787c.001-.219.01-.445.034-.579m3.114 6.618L31.535.791h0a.87.87 0 00-.207-.119A1.265 1.265 0 0031.027.6c-.209-.029-.542-.045-1.113-.057-1.155-.024-3.39-.028-7.817-.037a716.098 716.098 0 00-7.243.006c-.678.007-1.142.017-1.45.032a5.891 5.891 0 00-.374.026 1.056 1.056 0 00-.298.07l.2.457-.2-.457a1.817 1.817 0 00-.663.529c-.17.212-.317.48-.37.762m3.114 6.618l-.322.383c.961.808 2.211 1.353 3.728 1.66v2.758l-.145.059.188.463-.188-.463c-1.77.719-3.117 2.275-3.604 4.147H9.698c-1.72 0-3.05.008-3.986.023a45.57 45.57 0 00-1.117.029 4.21 4.21 0 00-.593.05m10.811-9.109l-10.71 30.43-.101.49c-1.659-.345-3.053-1.74-3.397-3.4a2.584 2.584 0 01-.032-.335 23.282 23.282 0 01-.02-.538 92.666 92.666 0 01-.03-1.708C.507 32.116.5 30.338.5 28.562c0-1.776.007-3.553.023-4.925.008-.686.018-1.272.03-1.707.006-.217.012-.4.02-.538.006-.121.014-.252.032-.336M11.699 1.93l.492.093-.492-.092s0 0 0 0zM4.002 17.656s0 0 0 0l.102.49-.102-.49zm0 0c-1.659.346-3.053 1.741-3.397 3.4m0 0l.489.102-.49-.102s0 0 0 0zm28.96 21.45l.4.298a1.87 1.87 0 00.177-.324c.055-.123.119-.276.186-.448.135-.345.291-.779.439-1.226l-.475-.157m-.727 1.856l-.029-24.922.09.349-.485.123m.424 24.45c.115-.153.437-.976.727-1.856m-.727 1.856c-.056.075-.098.14-.15.194-.311.33-.992.312-7.531.291l-6.923-.022-.315-.251 16.167-3.648m-.521 1.58l.475.157.407-1.237m-.882 1.08l.52-1.58m.362.5h3.963c1.416 0 2.539-.008 3.343-.023.403-.007.728-.017.973-.029.229-.01.427-.024.544-.049m-8.823.101h-.361v-.5m.361.5l.114-.343-.475-.157m9.184.4s0 0 0 0l-.102-.49.102.49zm0 0c1.659-.346 3.053-1.741 3.398-3.4a2.63 2.63 0 00.031-.336c.008-.14.014-.321.02-.538.012-.435.022-1.022.03-1.707.016-1.372.023-3.15.023-4.926 0-1.776-.007-3.553-.023-4.925-.008-.686-.018-1.272-.03-1.707-.006-.217-.012-.4-.02-.538a2.591 2.591 0 00-.032-.336c-.344-1.659-1.738-3.055-3.397-3.4 0 0 0 0 0 0l-.102.49c-.29-.06-2.154-.09-5.594-.09h-5.16m0 0l-.089-.35c-.443-1.734-1.688-3.174-3.315-3.835m3.404 4.184v-.371l-3.404-3.813m0 0l.188-.463-.145-.059m-.043.522l2.936-4.34c-.746.444-1.698.825-2.438.966a6.586 6.586 0 01-.296.05l-.036.007a5.406 5.406 0 00-.114.019m-.052 3.298l-.457-.185m.457.185l-.457-.185m.5-.337v-1.417c0-.228-.001-.42-.003-.587-.001-.212-.002-.38 0-.524a3.08 3.08 0 01.012-.248m-.009 2.776v.337h-.5m.5-.337l-.312-.127-.188.464m.509-3.113c.005-.053.01-.075.011-.08 0 0 0-.001 0 0a.223.223 0 01-.072.085c-.029.02-.043.019-.008.01a.702.702 0 01.069-.015zm-.509 3.113v-1.754c0-1.19-.041-1.58.131-1.74.117-.109.334-.11.73-.186l-.86 3.68zM7.467 29.122c.413-.414.27-1.09-.232-1.3-.482-.201-1.03.111-1.112.547l1.344.753zm0 0c-.55.55-1.502.092-1.344-.752l1.344.752zm0 4.596c.413-.414.27-1.089-.232-1.299-.482-.201-1.03.11-1.112.547l1.344.752zm0 0c-.55.55-1.502.093-1.344-.752l1.344.752zm5.717 5.351l-.474.16.115.34h.359v-.5zm10.46-20.39h0c2.045.344 3.828 1.279 5.394 2.842 2.047 2.042 3.072 4.675 2.93 7.509-.13 2.581-1.088 4.733-2.93 6.577-1.455 1.456-3.08 2.342-5.094 2.776-.434.094-1.174.147-1.944.147-.771 0-1.51-.053-1.945-.147-2.013-.434-3.64-1.32-5.094-2.776-1.818-1.82-2.787-3.973-2.93-6.498-.29-5.149 3.285-9.56 8.493-10.44.817-.138 2.266-.134 3.12.01zm10.881 5.82l-.376.33.376-.33a.795.795 0 01-.026-1.041.956.956 0 01.172-.173.439.439 0 01.167-.066c.216-.048.578-.057 1.358-.046.628.01.945.019 1.132.04a.6.6 0 01.132.026h0c.005.002.012.004.038.024.186.139.26.23.297.305.038.072.066.179.066.397 0 .219-.028.326-.066.398-.038.075-.111.166-.297.305-.026.02-.033.022-.04.024h0a.577.577 0 01-.127.026c-.177.023-.474.035-1.056.047-.751.016-1.138.005-1.378-.045a.623.623 0 01-.21-.074.725.725 0 01-.162-.148zM28.673 9.53c.393-.234.87-.63 1.298-1.045.429-.416.845-.885 1.102-1.28a7.938 7.938 0 001.254-4.53c-.014-.46-.038-.832-.158-1.136-.136-.344-.37-.551-.634-.749l-2.862 8.74zm-7.778 14.738c-2.334.628-3.792 3.048-3.19 5.36.615 2.363 3.029 3.84 5.36 3.232a4.479 4.479 0 003.311-3.701c.442-3.068-2.492-5.695-5.481-4.89z" stroke="#fff"/></svg>
